X:1
T: The Runaway Jig
C:
R:Jig
Q:180
K:D
M:6/8
L:1/16
|:A4F2 F4A2|d6 c2B2A2|B4G2 G4A2|B4A2 B2c2d2|
A4F2 F4A2|d6 c2B2A2|B2c2d2 e2c2A2|1d6 d2c2B2:|2d6 d4A2|
d4e2 f4d2|g4e2 f4d2|e2c2A2 A2c2A2|e2c2A2 A2c2A2|
d4e2 f4d2|g4e2 f4d2|e2c2A2 A2B2c2|1d6 d4A2:|2d6d6||
